svg/logs2.svg

<?xml version="1.0" encoding="UTF-8"?>
<svg xmlns="http://www.w3.org/2000/svg" xmlns:xlink="http://www.w3.org/1999/xlink" width="32" height="32" viewBox="0 0 32 32">
<path fill-rule="nonzero" fill="rgb(0%, 0%, 0%)" fill-opacity="1" d="M 30.464844 1.601562 L 1.535156 1.601562 C 0.671875 1.601562 0 2.273438 0 3.136719 L 0 6.238281 L 32 6.238281 L 32 3.136719 C 32 2.273438 31.328125 1.601562 30.464844 1.601562 Z M 2.816406 4.449219 C 2.78125 4.488281 2.738281 4.519531 2.6875 4.542969 C 2.65625 4.574219 2.59375 4.609375 2.558594 4.609375 C 2.496094 4.640625 2.464844 4.640625 2.398438 4.671875 C 2.335938 4.671875 2.304688 4.703125 2.238281 4.703125 C 2.175781 4.703125 2.144531 4.703125 2.078125 4.671875 C 2.015625 4.671875 1.984375 4.640625 1.921875 4.609375 C 1.886719 4.574219 1.824219 4.574219 1.792969 4.542969 C 1.761719 4.511719 1.695312 4.480469 1.664062 4.449219 C 1.511719 4.296875 1.429688 4.085938 1.441406 3.871094 C 1.445312 3.660156 1.523438 3.457031 1.664062 3.296875 C 1.855469 3.105469 2.113281 3.039062 2.398438 3.070312 C 2.464844 3.070312 2.496094 3.105469 2.558594 3.136719 C 2.625 3.167969 2.65625 3.167969 2.6875 3.199219 C 2.71875 3.230469 2.785156 3.265625 2.816406 3.296875 C 2.976562 3.457031 3.039062 3.648438 3.039062 3.871094 C 3.039062 4.085938 2.960938 4.292969 2.816406 4.449219 Z M 5.601562 4.0625 C 5.601562 4.128906 5.566406 4.160156 5.566406 4.222656 C 5.535156 4.289062 5.535156 4.320312 5.503906 4.351562 C 5.472656 4.382812 5.441406 4.449219 5.40625 4.480469 C 5.371094 4.519531 5.328125 4.550781 5.28125 4.574219 C 5.246094 4.609375 5.199219 4.632812 5.152344 4.640625 C 5.121094 4.671875 5.054688 4.671875 4.992188 4.671875 C 4.929688 4.671875 4.894531 4.703125 4.832031 4.703125 C 4.621094 4.699219 4.417969 4.621094 4.257812 4.480469 C 4.21875 4.445312 4.183594 4.402344 4.160156 4.351562 C 4.125 4.316406 4.105469 4.269531 4.097656 4.222656 C 4.0625 4.160156 4.0625 4.128906 4.0625 4.0625 C 4.0625 4 4.03125 3.96875 4.03125 3.902344 C 4.03125 3.839844 4.03125 3.808594 4.0625 3.742188 C 4.0625 3.679688 4.097656 3.648438 4.097656 3.585938 C 4.128906 3.550781 4.128906 3.488281 4.160156 3.457031 C 4.191406 3.425781 4.222656 3.359375 4.257812 3.328125 C 4.292969 3.289062 4.335938 3.257812 4.382812 3.230469 C 4.417969 3.195312 4.464844 3.175781 4.511719 3.167969 C 4.542969 3.136719 4.609375 3.136719 4.671875 3.105469 C 4.929688 3.039062 5.214844 3.136719 5.40625 3.328125 C 5.449219 3.363281 5.480469 3.40625 5.503906 3.457031 C 5.539062 3.492188 5.558594 3.539062 5.566406 3.585938 C 5.59375 3.632812 5.605469 3.6875 5.601562 3.742188 C 5.601562 3.808594 5.632812 3.839844 5.632812 3.902344 C 5.632812 3.96875 5.632812 4 5.601562 4.0625 Z M 8.191406 4.0625 C 8.191406 4.128906 8.160156 4.160156 8.128906 4.222656 C 8.097656 4.289062 8.097656 4.320312 8.0625 4.351562 C 8.03125 4.382812 8 4.449219 7.96875 4.480469 C 7.933594 4.519531 7.886719 4.550781 7.839844 4.574219 C 7.804688 4.609375 7.761719 4.632812 7.710938 4.640625 C 7.648438 4.671875 7.617188 4.671875 7.550781 4.703125 C 7.488281 4.703125 7.457031 4.734375 7.390625 4.734375 C 7.328125 4.734375 7.296875 4.734375 7.230469 4.703125 C 7.167969 4.703125 7.136719 4.671875 7.070312 4.640625 C 7.007812 4.609375 6.976562 4.609375 6.945312 4.574219 C 6.910156 4.542969 6.847656 4.511719 6.816406 4.480469 C 6.777344 4.441406 6.746094 4.398438 6.71875 4.351562 C 6.683594 4.316406 6.664062 4.269531 6.65625 4.222656 C 6.625 4.160156 6.625 4.128906 6.59375 4.0625 L 6.59375 3.742188 C 6.59375 3.679688 6.625 3.648438 6.65625 3.585938 C 6.6875 3.550781 6.6875 3.488281 6.71875 3.457031 C 6.753906 3.425781 6.785156 3.359375 6.816406 3.328125 C 6.847656 3.296875 6.878906 3.265625 6.945312 3.230469 C 6.980469 3.195312 7.023438 3.175781 7.070312 3.167969 C 7.136719 3.136719 7.167969 3.136719 7.230469 3.105469 C 7.332031 3.070312 7.445312 3.070312 7.550781 3.105469 C 7.617188 3.105469 7.648438 3.136719 7.710938 3.167969 C 7.742188 3.199219 7.808594 3.199219 7.839844 3.230469 C 7.871094 3.265625 7.9375 3.296875 7.96875 3.328125 C 8.007812 3.363281 8.039062 3.40625 8.0625 3.457031 C 8.097656 3.492188 8.121094 3.535156 8.128906 3.585938 C 8.160156 3.648438 8.160156 3.679688 8.191406 3.742188 L 8.191406 3.902344 C 8.222656 3.96875 8.222656 4 8.191406 4.0625 Z M 0 28.863281 C 0 29.726562 0.671875 30.398438 1.535156 30.398438 L 30.496094 30.398438 C 31.328125 30.398438 32.03125 29.726562 32.03125 28.863281 L 32.03125 7.839844 L 0 7.839844 Z M 10.238281 25.152344 L 16.769531 25.152344 L 16.769531 26.753906 L 10.238281 26.753906 Z M 10.238281 21.726562 L 16.769531 21.726562 L 16.769531 23.328125 L 10.238281 23.328125 Z M 10.238281 18.304688 L 16.769531 18.304688 L 16.769531 19.902344 L 10.238281 19.902344 Z M 10.238281 14.878906 L 16.769531 14.878906 L 16.769531 16.480469 L 10.238281 16.480469 Z M 26.015625 19.902344 L 18.367188 19.902344 L 18.367188 18.304688 L 26.015625 18.304688 Z M 26.015625 23.328125 L 22.816406 23.328125 L 22.816406 21.726562 L 26.015625 21.726562 Z M 18.367188 21.726562 L 21.183594 21.726562 L 21.183594 23.328125 L 18.367188 23.328125 Z M 21.183594 16.480469 L 18.367188 16.480469 L 18.367188 14.878906 L 21.183594 14.878906 Z M 18.367188 25.152344 L 23.390625 25.152344 L 23.390625 26.753906 L 18.367188 26.753906 Z M 30.078125 26.753906 L 24.992188 26.753906 L 24.992188 25.152344 L 30.078125 25.152344 Z M 30.078125 23.328125 L 27.617188 23.328125 L 27.617188 21.726562 L 30.078125 21.726562 Z M 30.078125 19.902344 L 27.617188 19.902344 L 27.617188 18.304688 L 30.078125 18.304688 Z M 30.078125 16.480469 L 22.785156 16.480469 L 22.785156 14.878906 L 30.078125 14.878906 Z M 30.078125 13.054688 L 27.617188 13.054688 L 27.617188 11.457031 L 30.078125 11.457031 Z M 26.015625 13.054688 L 18.367188 13.054688 L 18.367188 11.457031 L 26.015625 11.457031 Z M 16.769531 13.054688 L 10.238281 13.054688 L 10.238281 11.457031 L 16.769531 11.457031 Z M 1.953125 11.457031 L 8.640625 11.457031 L 8.640625 13.054688 L 1.953125 13.054688 Z M 1.953125 14.878906 L 8.640625 14.878906 L 8.640625 16.480469 L 1.953125 16.480469 Z M 1.953125 18.304688 L 8.640625 18.304688 L 8.640625 19.902344 L 1.953125 19.902344 Z M 1.953125 21.726562 L 8.640625 21.726562 L 8.640625 23.328125 L 1.953125 23.328125 Z M 1.953125 25.152344 L 8.640625 25.152344 L 8.640625 26.753906 L 1.953125 26.753906 Z M 1.953125 25.152344 "/>
</svg>

<svg role="img" viewBox="0 0 32 32" xmlns="http://www.w3.org/2000/svg"><path d="M30.465 1.602H1.535C.672 1.602 0 2.273 0 3.137v3.101h32V3.137c0-.864-.672-1.535-1.535-1.535M2.816 4.449a.4.4 0 0 1-.128.094c-.032.031-.094.066-.13.066-.062.032-.093.032-.16.063-.062 0-.093.031-.16.031-.062 0-.093 0-.16-.031-.062 0-.094-.031-.156-.063-.035-.035-.098-.035-.129-.066s-.098-.063-.129-.094a.76.76 0 0 1-.223-.578.9.9 0 0 1 .223-.574c.191-.192.45-.258.734-.227.067 0 .098.035.16.067.067.031.098.031.13.062.03.031.097.067.128.098.16.16.223.351.223.574a.85.85 0 0 1-.223.578m2.786-.386c0 .066-.036.097-.036.16-.03.066-.03.097-.062.129-.031.03-.063.097-.098.128a.4.4 0 0 1-.125.094.24.24 0 0 1-.129.067c-.03.03-.097.03-.16.03-.062 0-.097.032-.16.032a.9.9 0 0 1-.574-.223.4.4 0 0 1-.098-.128.24.24 0 0 1-.062-.13c-.035-.062-.035-.093-.035-.16 0-.062-.032-.093-.032-.16 0-.062 0-.093.032-.16 0-.062.035-.094.035-.156.03-.035.03-.098.062-.129.031-.031.063-.098.098-.129a.5.5 0 0 1 .125-.098.24.24 0 0 1 .129-.062c.031-.031.097-.031.16-.063.258-.066.543.032.734.223a.35.35 0 0 1 .098.129.24.24 0 0 1 .062.129c.028.047.04.102.036.156 0 .067.03.098.03.16 0 .067 0 .098-.03.16m2.59 0c0 .066-.032.097-.063.16-.031.066-.031.097-.066.129-.032.03-.063.097-.094.128a.4.4 0 0 1-.13.094.23.23 0 0 1-.128.067c-.063.03-.094.03-.16.062-.063 0-.094.031-.16.031-.063 0-.094 0-.16-.03-.063 0-.094-.032-.16-.063-.063-.032-.094-.032-.126-.067-.035-.031-.097-.062-.129-.094a.6.6 0 0 1-.097-.128.24.24 0 0 1-.063-.13c-.031-.062-.031-.093-.062-.16v-.32c0-.062.031-.094.062-.156.032-.035.032-.098.063-.129.035-.031.066-.098.097-.129.032-.031.063-.062.13-.098a.23.23 0 0 1 .124-.062c.067-.031.098-.031.16-.063a.5.5 0 0 1 .32 0c.067 0 .098.032.16.063.032.031.099.031.13.062.031.036.098.067.129.098q.058.053.093.129a.23.23 0 0 1 .067.129c.031.062.031.094.062.156v.16c.032.067.032.098 0 .16M0 28.863c0 .864.672 1.535 1.535 1.535h28.961c.832 0 1.535-.671 1.535-1.535V7.84H0Zm10.238-3.71h6.532v1.6h-6.532Zm0-3.426h6.532v1.601h-6.532Zm0-3.422h6.532v1.597h-6.532Zm0-3.426h6.532v1.601h-6.532Zm15.778 5.023h-7.649v-1.597h7.649Zm0 3.426h-3.2v-1.601h3.2Zm-7.649-1.601h2.817v1.601h-2.817Zm2.817-5.247h-2.817v-1.6h2.817Zm-2.817 8.672h5.024v1.602h-5.024Zm11.711 1.602h-5.086v-1.602h5.086Zm0-3.426h-2.46v-1.601h2.46Zm0-3.426h-2.46v-1.597h2.46Zm0-3.422h-7.293v-1.6h7.293Zm0-3.425h-2.46v-1.598h2.46Zm-4.062 0h-7.649v-1.598h7.649Zm-9.246 0h-6.532v-1.598h6.532ZM1.953 11.457h6.688v1.598H1.953Zm0 3.422h6.688v1.601H1.953Zm0 3.426h6.688v1.597H1.953Zm0 3.422h6.688v1.601H1.953Zm0 3.425h6.688v1.602H1.953Zm0 0" fill="rgb(0%, 0%, 0%)"/></svg>
